X:0818
T:"The Yellow Flail"    (jig)     0818
C:after  Chief  F. O'Neill
B:O'Neill's Music Of Ireland (The 1850) Lyon & Healy, Chicago, 1903 edition
Z:FROM O'NEILL'S TO NOTEWORTHY, FROM NOTEWORTHY TO ABC, MIDI AND .TXT BY VINCE
BRENNAN July 2003 (HTTP://WWW.SOSYOURMOM.COM)
I:abc2nwc
M:6/8
L:1/8
K:G
d/2c/2|BAG GFG|D2E {G}FEF|GAG GAB|{d}cAG FGA|
BcB {c}BAG|ABA ABc|dcA {B}AGF|G3G2:|
|:D| TR(GFG) BAG|GFG AFD| TR(GFG) BGB|{d}c2A F2A|
 TR(GFG) BAG|E.FG ABc|dcA {B}AGF|G3G2:|
|:D|G2A B2c|ded d2c|{c}BAG FGA|cAG F2A|
BcB {c}BAG|ABA ABc|dcA {B}AGF|G3G2:|


